X:2167
T:Garçons de la montagne
O:england
C:Trad 3, 53
M:3/8
L:1/16
K:C
g3ag2|f2d2f2|edc2d2|e2d4|\
g3ag2|f2d2f2|edc2B2|c4c2:|
|:G2c2d2|e2d2f2|edc2d2|e2d4|\
G2c2d2|e2d2f2|edc2B2|c4c2:|


